X:1
T:Title
%%score { ( 1 3 5 ) | ( 2 4 ) }
L:1/8
Q:1/4=100
M:4/4
K:F
V:1 treble nm="Grand Piano"
V:3 treble 
V:5 treble 
V:2 bass 
V:4 bass 
V:1
 A2 C2 A_A=AB | [EG]2 C2 [EG]4 | [Ec][Fc][Gc][Ac] [Bc]2 G_A | A6 z2 | A2 C2 A_A=AB | %5
w: Mrs.~C.~H.~Morris * * * * *|||||
 [EG]2 C2 [Cc]4 | [_Ec][DB][DA][DG] F2 z B, | F6 z2 | [Ac]2 [Ac][Ac] [_A=B][=Ac][_Bd][Ac] | %9
w: ||||
 [GB]6 z2 | [CGB]2 [GB][GB] [^FA][GB][Ac]B | A6 z2 | c2 cc [G^c]2 [Gc]2 | %13
w: ||||
 [^Fd]2 [DFA]2 [DGB]2 [DGB]2 | [CFA] [CFA]2 [A,F] [B,EG]2 [B,EG]2 | [A,CF]6 z2 |] %16
w: |||
V:2
 [F,A,C]2 [F,A,]2 [F,CF][F,=B,F][F,CF][F,DF] | [C,C]2 [C,B,]2 [C,B,]4 | %2
 [C,G,][C,A,][C,B,][C,F,] [C,G,]2 [C,C]2 | [F,CF]6 z2 | %4
 [F,A,C]2 [F,A,]2 [F,CF][F,=B,F][F,CF][F,DF] | [C,C]2 [B,,G,]2 [A,,F,]4 | %6
 [A,,F,][B,,F,][B,,B,][B,,B,] [C,A,C]2 .[C,G,C]2 | [F,A,C]6 z2 | [F,C]2 [C,C]2 [F,C]2 [C,C]2 | %9
 [E,C]E,C,C, C,2 z2 | E,2 [C,C]2 [E,C]2 z[K:treble] G | [F,CF][K:bass]F,F,F, F,2 z2 | %12
 [F,A,F]2 [F,A,F][F,A,F] [E,A,]2 [E,A,]2 | [D,A,]2 D,2 G,2 B,,2 | C, C,2 C, C,2 C,2 | F,6 z2 |] %16
V:3
 x8 | x8 | z4 z2 E2 | x8 | x8 | x8 | z4 z2 =E2 | x8 | x8 | z CED C2 z2 | x8 | z F3- F2 z2 | x8 | %13
 x8 | x8 | x8 |] %16
V:4
 x8 | x8 | x8 | x8 | x8 | x8 | x8 | x8 | x8 | x8 | z4 z2 [C,C]2[K:treble] | x[K:bass] x7 | x8 | %13
 x8 | x8 | x8 |] %16
V:5
 x8 | x8 | x8 | x8 | x8 | x8 | x8 | x8 | x8 | x8 | x8 | z2 ED C2 z2 | x8 | x8 | x8 | x8 |] %16

